client/public/img/misc/mwheelright_icon.svg

<?xml version="1.0" encoding="UTF-8" standalone="no"?>
<svg
   width="25"
   height="26"
   viewBox="0 0 25 26"
   fill="none"
   version="1.1"
   id="svg7"
   xmlns="http://www.w3.org/2000/svg"
   xmlns:svg="http://www.w3.org/2000/svg">
  <defs
     id="defs7" />
  <path
     d="M7.8552 20.0579L9.14592 19.6484C9.46238 20.676 9.92702 21.6784 10.5171 22.5823L9.23645 23.1121C9.12883 23.1696 9.0724 23.1777 8.98224 23.0103L7.76832 20.2978C7.7109 20.1502 7.71605 20.0972 7.8552 20.0579Z"
     fill="#333333"
     id="path1" />
  <path
     d="M7.60009 15.3018H8.69162C8.67157 15.7519 8.66366 16.191 8.66366 16.5868C8.66366 17.5037 8.8057 18.4603 9.07254 19.4008L7.76823 19.5283C7.64933 19.5391 7.59508 19.5261 7.59171 19.3566L7.41982 15.4949C7.41558 15.3596 7.44461 15.3088 7.60009 15.3018Z"
     fill="#333333"
     id="path2" />
  <path
     d="M23.3407 8.8358C23.5018 9.90742 23.6723 11.0414 23.9326 12.2018H18.1689V1.3623C22.2988 1.90649 22.7585 4.96385 23.3407 8.8358Z"
     fill="#333333"
     id="path3" />
  <path
     d="M17.7323 1.31573V12.2022H15.7656V1.31573C16.0742 1.28969 16.4015 1.27637 16.749 1.27637C17.0964 1.27637 17.4238 1.28968 17.7323 1.31573Z"
     fill="#FF0000"
     id="path4" />
  <path
     d="M15.3286 1.3623V12.2018H9.56494C9.82522 11.0414 9.99572 9.90744 10.1568 8.83582C10.739 4.96387 11.1987 1.9065 15.3286 1.3623Z"
     fill="#333333"
     id="path5" />
  <path
     d="M24.0617 12.7489C24.0527 12.7125 24.0437 12.676 24.0349 12.6396H9.46253L9.4595 12.6521C9.4542 12.6738 9.44889 12.6954 9.44353 12.7171L9.43564 12.7489C9.17641 13.7915 9.10059 15.3724 9.10059 16.5869C9.10059 20.8014 12.2564 25.9664 16.7544 25.9692C21.2523 25.9664 24.3968 20.8014 24.3968 16.5869C24.3968 15.3724 24.321 13.7915 24.0617 12.7489Z"
     fill="#333333"
     id="path6" />
  <rect
     width="4.70683"
     height="4.81784"
     transform="matrix(-4.37114e-08 -1 -1 4.37114e-08 13.5801 9.13574)"
     fill="#FF0000"
     id="rect6" />
  <path
     d="M8.76221 12.5957L8.76221 0.968448L0.604767 6.78208L8.76221 12.5957Z"
     fill="#FF0000"
     id="path7" />
</svg>

<svg xmlns="http://www.w3.org/2000/svg" width="25" height="26" fill="none"><path fill="#333" d="m7.855 20.058 1.29-.41a11.7 11.7 0 0 0 1.372 2.934l-1.28.53c-.108.058-.165.066-.255-.102l-1.214-2.712c-.057-.148-.052-.2.087-.24M7.6 15.302h1.092c-.02.45-.028.889-.028 1.285 0 .917.142 1.873.409 2.814l-1.305.127c-.119.011-.173-.002-.176-.171l-.172-3.862c-.004-.135.025-.186.18-.193m15.74-6.466c.162 1.071.332 2.205.593 3.366h-5.764V1.362c4.13.544 4.59 3.602 5.172 7.474"/><path fill="red" d="M17.732 1.316v10.886h-1.966V1.316q.462-.04.983-.04t.983.04"/><path fill="#333" d="M15.329 1.362v10.84H9.565c.26-1.16.43-2.295.592-3.366.582-3.872 1.042-6.93 5.172-7.474m8.733 11.387-.027-.11H9.463l-.003.013-.016.065-.008.032c-.26 1.042-.335 2.623-.335 3.838 0 4.214 3.155 9.38 7.653 9.382 4.498-.003 7.643-5.168 7.643-9.382 0-1.215-.076-2.796-.335-3.838"/><path fill="red" d="M13.58 9.136V4.429H8.762v4.707zm-4.818 3.46V.968L.605 6.782z"/></svg>
